!!!OTL: Die Versuchung.
!!!OTL-incipit: DES MORGENS IN DER KUEHLEN ZEIT
!!!ARE: Europa, Mitteleuropa, Deutschland, Niederrhein
!!!SCT: Z1278
!!!TXL: @@DE
!!!YEM: Copyright 1995, estate of Helmut Schaffrath.
**kern	**text
*ICvox	*
*M6/8	*
*k[f#]	*
*G:	*
!LO:TX:a:t=Vorſänger.	!
!LO:TX:a:t=Vom Niederrhein.	!
{8g	Des
=1	=1
4g	Morgens
8dd	.
4b	in
8g	der
=2	=2
8aL	küh-
8gJ	.
8a	-len
4b}	Ʒeit!
!LO:TX:a:t=Alle.	!
{8dd/	Jn
=3	=3
(>4cc/	Som-
8b/)	.
4.a	-mer-
=4	=4
4g	-freud'!
8r	.
4r}	.
!LO:TX:a:t=Vorſänger.	!
{8b	Da
=5	=5
8cc	ſiʒ-
8cc	-ʒet
8cc	der
8b	Vo-
8b	-gel
8a	auf
=6	=6
4b	grünem
8cc#	.
4dd;}	Ʒweig!
!LO:TX:a:t=Alle.	!
{8cc/	Welch
=7	=7
4b/	fei-
8a	-nen
4g;	Klang
8dd/	hat
=8	=8
4ee/	der
8dd/	Ge-
4cc/}	-ſang,
{8b/	im
=9	=9
8a	Garten
8a	.
8a	iſt
4a	mir
8b/	nicht
=10	=10
4g;	bang!
8r	.
4r}	.
==	==
!!!AGN: Natur und Welt
!!!ONB: ESAC (Essen Associative Code) Database: ZUCCAL
!!!AMT: compound duple
!!!AIN: vox
!!!EED: Helmut Schaffrath
!!!EEV: 1.0
!!!GTL: VI. Natur und Welt.
!!!URL-scan: https://www.digitale-sammlungen.de/de/view/bsb11160573?page=509
!!!ENC: Anna Maria Matuszewska
!!!EEV: 2025/02/06
*-	*-
